public/avatar/body/10.svg

<svg xmlns:xlink="http://www.w3.org/1999/xlink" height="82" width="84.85" xmlns="http://www.w3.org/2000/svg"><g transform="translate(37.4 42.25)"><use height="38" transform="translate(-11.95 -17.45)" width="32.05" xlink:href="#a"/><use height="21.6" transform="translate(-12.25 -17.95)" width="32.65" xlink:href="#b"/><use height="18.85" transform="matrix(1.0188 0 0 1 -12.76 2.15)" width="16.95" xlink:href="#c"/><use height="18.85" transform="matrix(-1.0188 0 0 1 20.76 2.15)" width="16.95" xlink:href="#c"/></g><defs><use height="38" width="32.05" xlink:href="#d" id="a"/><use height="21.6" width="32.65" xlink:href="#e" id="b"/><use height="18.85" width="16.95" xlink:href="#f" id="c"/><path d="M27.35 7.4q2.15 4.15 3.55 8.75 1.45 4.7 1.15 9.5-.35 4.95-4.2 8.1-3.8 3.2-8.75 4.05l-2.6.2q-3.6 0-7.05-1.15-4.65-1.6-7.1-5.5Q-.2 27.4.05 23q.2-4.4 2-9.3Q3.85 8.75 7 5.05 10.1 1.3 14.7.1l1.8-.1q1.9.05 3.7.8 4.75 2.05 7.15 6.6" fill="#fff" fill-rule="evenodd" transform="translate(-.05)" id="d"/><path d="M31.9 20.6q-.3-2.25-1-4.45-1.4-4.6-3.55-8.75-2.4-4.55-7.15-6.6-2.65-1.1-5.5-.7Q10.1 1.3 7 5.05q-3.15 3.7-4.95 8.65Q.7 17.3.25 20.6" fill="none" stroke="#000" stroke-linecap="round" stroke-linejoin="round" transform="translate(.25 .5)" id="e"/><g id="f"><path d="m15.95 4.55-.05-.1-1.25 1.5-1.55 1.8-2.7-1.2-4.3-1.9L0 1.95.1 0l15.85 4.15v.4" fill="#fff" fill-rule="evenodd" transform="translate(.5 .5)"/><path d="m14.65 5.95 1.25-1.5.05.1V8.7l-1-.1q-.8-1.05-.3-2.65m-.25 9.2q-.15-2.95.75-6.05l.8.15v8.45l-1.55-2.55" fill="#006" fill-rule="evenodd" transform="translate(.5 .5)"/><path d="m10.4 6.55 2.7 1.2 1.55-1.8q-.5 1.6.3 2.65l1 .1v.55l-.8-.15q-.9 3.1-.75 6.05l-4-8.6" fill="#ccc" fill-rule="evenodd" transform="translate(.5 .5)"/><path d="m0 1.95 6.1 2.7V9.6l3.1 1-.9 1.95 6.9 4.7.65.55v.05h-.15l-.75-.05q-2.95-.35-5.4-1.35-4.65-1.8-7.2-6Q-.05 6.6 0 2.1v-.15" fill-rule="evenodd" transform="translate(.5 .5)"/><path d="m6.1 4.65 4.3 1.9 4 8.6 1.55 2.55v.15h-.1v-.05l-.65-.55-6.9-4.7.9-1.95-3.1-1V4.65" fill="#666" fill-rule="evenodd" transform="translate(.5 .5)"/><path d="M.1 0 0 1.95v.15q-.05 4.5 2.35 8.35 2.55 4.2 7.2 6 2.45 1 5.4 1.35l.75.05h.15" fill="none" stroke="#000" stroke-linecap="round" stroke-linejoin="round" transform="translate(.5 .5)"/><path d="M15.95 4.15.1 0Z" fill="none" stroke="#adc0d6" stroke-linecap="round" stroke-linejoin="round" transform="translate(.5 .5)"/></g></defs></svg>

<?xml version="1.0" encoding="UTF-8" standalone="no"?>
<svg xmlns:xlink="http://www.w3.org/1999/xlink" height="82.0px" width="84.85px" xmlns="http://www.w3.org/2000/svg">
  <g transform="matrix(1.0, 0.0, 0.0, 1.0, 37.4, 42.25)">
    <use height="38.0" transform="matrix(1.0, 0.0, 0.0, 1.0, -11.95, -17.45)" width="32.05" xlink:href="#sprite0"/>
    <use height="21.6" transform="matrix(1.0, 0.0, 0.0, 1.0, -12.25, -17.95)" width="32.65" xlink:href="#sprite1"/>
    <use height="18.85" transform="matrix(1.0188, 0.0, 0.0, 1.0, -12.7594, 2.15)" width="16.95" xlink:href="#sprite2"/>
    <use height="18.85" transform="matrix(-1.0188, 0.0, 0.0, 1.0, 20.7594, 2.15)" width="16.95" xlink:href="#sprite2"/>
  </g>
  <defs>
    <g id="sprite0" transform="matrix(1.0, 0.0, 0.0, 1.0, -0.05, 0.0)">
      <use height="38.0" transform="matrix(1.0, 0.0, 0.0, 1.0, 0.05, 0.0)" width="32.05" xlink:href="#shape0"/>
    </g>
    <g id="shape0" transform="matrix(1.0, 0.0, 0.0, 1.0, -0.05, 0.0)">
      <path d="M27.35 7.4 Q29.5 11.55 30.9 16.15 32.35 20.85 32.05 25.65 31.7 30.6 27.85 33.75 24.05 36.95 19.1 37.8 L16.5 38.0 Q12.9 38.0 9.45 36.85 4.8 35.25 2.35 31.35 -0.2 27.4 0.05 23.0 0.25 18.6 2.05 13.7 3.85 8.75 7.0 5.05 10.1 1.3 14.7 0.1 L16.5 0.0 Q18.4 0.05 20.2 0.8 24.95 2.85 27.35 7.4" fill="#ffffff" fill-rule="evenodd" stroke="none"/>
    </g>
    <g id="sprite1" transform="matrix(1.0, 0.0, 0.0, 1.0, 0.25, 0.5)">
      <use height="21.6" transform="matrix(1.0, 0.0, 0.0, 1.0, -0.25, -0.5)" width="32.65" xlink:href="#shape1"/>
    </g>
    <g id="shape1" transform="matrix(1.0, 0.0, 0.0, 1.0, 0.25, 0.5)">
      <path d="M31.9 20.6 Q31.6 18.35 30.9 16.15 29.5 11.55 27.35 7.4 24.95 2.85 20.2 0.8 17.55 -0.3 14.7 0.1 10.1 1.3 7.0 5.05 3.85 8.75 2.05 13.7 0.7 17.3 0.25 20.6" fill="none" stroke="#000000" stroke-linecap="round" stroke-linejoin="round" stroke-width="1.0"/>
    </g>
    <g id="sprite2" transform="matrix(1.0, 0.0, 0.0, 1.0, 0.5, 0.5)">
      <use height="18.85" transform="matrix(1.0, 0.0, 0.0, 1.0, -0.5, -0.5)" width="16.95" xlink:href="#shape2"/>
    </g>
    <g id="shape2" transform="matrix(1.0, 0.0, 0.0, 1.0, 0.5, 0.5)">
      <path d="M15.95 4.55 L15.9 4.45 14.65 5.95 13.1 7.75 10.4 6.55 6.1 4.65 0.0 1.95 0.1 0.0 15.95 4.15 15.95 4.55" fill="#ffffff" fill-rule="evenodd" stroke="none"/>
      <path d="M14.65 5.95 L15.9 4.45 15.95 4.55 15.95 8.7 14.95 8.6 Q14.15 7.55 14.65 5.95 M14.4 15.15 Q14.25 12.2 15.15 9.1 L15.95 9.25 15.95 17.7 14.4 15.15" fill="#000066" fill-rule="evenodd" stroke="none"/>
      <path d="M10.4 6.55 L13.1 7.75 14.65 5.95 Q14.15 7.55 14.95 8.6 L15.95 8.7 15.95 9.25 15.15 9.1 Q14.25 12.2 14.4 15.15 L10.4 6.55" fill="#cccccc" fill-rule="evenodd" stroke="none"/>
      <path d="M0.0 1.95 L6.1 4.65 6.1 9.6 9.2 10.6 8.3 12.55 15.2 17.25 15.85 17.8 15.85 17.85 15.75 17.85 15.7 17.85 14.95 17.8 Q12.0 17.45 9.55 16.45 4.9 14.65 2.35 10.45 -0.05 6.6 0.0 2.1 L0.0 1.95" fill="#000000" fill-rule="evenodd" stroke="none"/>
      <path d="M6.1 4.65 L10.4 6.55 14.4 15.15 15.95 17.7 15.95 17.85 15.85 17.85 15.85 17.8 15.2 17.25 8.3 12.55 9.2 10.6 6.1 9.6 6.1 4.65" fill="#666666" fill-rule="evenodd" stroke="none"/>
      <path d="M0.1 0.0 L0.0 1.95 0.0 2.1 Q-0.05 6.6 2.35 10.45 4.9 14.65 9.55 16.45 12.0 17.45 14.95 17.8 L15.7 17.85 15.75 17.85 15.85 17.85" fill="none" stroke="#000000" stroke-linecap="round" stroke-linejoin="round" stroke-width="1.0"/>
      <path d="M15.95 4.15 L0.1 0.0 Z" fill="none" stroke="#adc0d6" stroke-linecap="round" stroke-linejoin="round" stroke-width="1.0"/>
    </g>
  </defs>
</svg>
